public/LinkedIn.svg

<svg width="50" height="50" viewBox="0 0 50 50" fill="none" xmlns="http://www.w3.org/2000/svg">
<path fill-rule="evenodd" clip-rule="evenodd" d="M6.18319e-07 4.17728C6.18319e-07 3.0694 0.440105 2.00688 1.22349 1.2235C2.00688 0.44011 3.06938 5.5689e-06 4.17727 5.5689e-06H45.8182C46.3672 -0.00089114 46.911 0.106512 47.4185 0.316067C47.926 0.52562 48.3872 0.83321 48.7755 1.22122C49.164 1.60924 49.4722 2.07007 49.6822 2.5773C49.8923 3.08455 50.0003 3.62825 50 4.17728V45.8182C50.0007 46.3673 49.8928 46.9112 49.6832 47.4187C49.4733 47.9262 49.1655 48.3873 48.7773 48.7757C48.3892 49.1642 47.9282 49.4722 47.4208 49.6822C46.9133 49.8923 46.3697 50.0003 45.8205 50H4.17727C3.62852 50 3.08513 49.8918 2.57817 49.6818C2.07122 49.4717 1.61062 49.1638 1.22269 48.7757C0.834767 48.3875 0.527118 47.9268 0.317323 47.4197C0.10753 46.9127 -0.000297945 46.3692 6.18319e-07 45.8205V4.17728ZM19.7908 19.0637H26.5613V22.4637C27.5387 20.5092 30.0387 18.75 33.7955 18.75C40.9977 18.75 42.7045 22.6432 42.7045 29.7863V43.0182H35.4158V31.4137C35.4158 27.3455 34.4387 25.05 31.9568 25.05C28.5137 25.05 27.0818 27.525 27.0818 31.4137V43.0182H19.7908V19.0637ZM7.29092 42.7068H14.5818V18.75H7.29092V42.7068ZM15.625 10.9364C15.6387 11.5606 15.5277 12.1813 15.2983 12.7621C15.0689 13.3428 14.7258 13.8719 14.2892 14.3183C13.8525 14.7646 13.3311 15.1193 12.7556 15.3614C12.18 15.6035 11.5619 15.7282 10.9375 15.7282C10.3131 15.7282 9.69497 15.6035 9.11942 15.3614C8.54387 15.1193 8.02247 14.7646 7.58583 14.3183C7.1492 13.8719 6.80612 13.3428 6.57673 12.7621C6.34733 12.1813 6.23625 11.5606 6.25 10.9364C6.27698 9.71103 6.7827 8.54498 7.65883 7.68793C8.53497 6.83087 9.71187 6.35095 10.9375 6.35095C12.1631 6.35095 13.34 6.83087 14.2162 7.68793C15.0923 8.54498 15.598 9.71103 15.625 10.9364Z" fill="#1096E1"/>
</svg>

<svg xmlns="http://www.w3.org/2000/svg" width="50" height="50" fill="none" xmlns:v="https://vecta.io/nano"><path fill-rule="evenodd" d="M0 4.177c0-1.108.44-2.17 1.223-2.954S3.069 0 4.177 0h41.641c.549-.001 1.093.107 1.6.316s.969.517 1.357.905.697.849.907 1.356.318 1.051.318 1.6v41.641a4.18 4.18 0 0 1-1.223 2.958c-.388.389-.849.697-1.356.907s-1.051.318-1.6.318H4.177a4.18 4.18 0 0 1-2.955-1.224 4.18 4.18 0 0 1-.905-1.356C.108 46.913 0 46.369 0 45.821V4.177zm19.791 14.886h6.77v3.4c.977-1.954 3.477-3.714 7.234-3.714 7.202 0 8.909 3.893 8.909 11.036v13.232h-7.289V31.414c0-4.068-.977-6.364-3.459-6.364-3.443 0-4.875 2.475-4.875 6.364v11.605h-7.291V19.064zm-12.5 23.643h7.291V18.75H7.291v23.957zm8.334-31.77a4.69 4.69 0 0 1-1.336 3.382 4.69 4.69 0 0 1-3.352 1.41 4.69 4.69 0 0 1-3.352-1.41 4.69 4.69 0 0 1-1.336-3.382 4.69 4.69 0 0 1 4.688-4.585 4.69 4.69 0 0 1 4.688 4.585z" fill="#1096e1"/></svg>
